Adwaita++/actions/16/view-user-offline-kopete.svg

<svg height="16" viewBox="0 0 16 16" width="16" xmlns="http://www.w3.org/2000/svg">
  <path d="m6 2c-1.6569 0-3 1.3432-3 3s1.3431 3 3 3 3-1.3432 3-3-1.3431-3-3-3zm4.996094 1.9453125.003906.0039063c-.38828 0-.753294.0893012-1.0839844.2382812.0546.26205.0839844.5330869.0839844.8105469 0 1.1021-.4542138 2.1041781-1.1835938 2.8300781.46.7 1.2596878 1.1699219 2.1796878 1.1699219 1.4327 0 2.59375-1.1302907 2.59375-2.5253907 0-1.3950999-1.16105-2.5273437-2.59375-2.5273437zm-4.996094 6.0507813c-6.0002.0034-6 4.0039062-6 4.0039062v1h12v-1s0-4.01-6-4zm5 .0019531v.0019531c-.1961 0-.371714.012584-.552734.021484.69756.39966 1.229115.877074 1.603515 1.376954.94 1.259999.949219 2.599609.949219 2.599609h3v-1s0-3.0000001-5-3.0000001z" fill="#474747"/>
</svg>

<svg xmlns="http://www.w3.org/2000/svg" width="16" height="16" viewBox="0 0 16 16">
 <defs>
  <style id="current-color-scheme" type="text/css">
   .ColorScheme-Text { color:#474747; } .ColorScheme-Highlight { color:#4285f4; }
  </style>
 </defs>
 <path style="fill:currentColor" class="ColorScheme-Text" d="M 6 2 C 4.3431 2 3 3.3432 3 5 C 3 6.6568 4.3431 8 6 8 C 7.6569 8 9 6.6568 9 5 C 9 3.3432 7.6569 2 6 2 z M 10.996094 3.9453125 L 11 3.9492188 C 10.61172 3.9492188 10.246706 4.03852 9.9160156 4.1875 C 9.9706156 4.44955 10 4.7205869 10 4.9980469 C 10 6.1001469 9.5457862 7.102225 8.8164062 7.828125 C 9.2764062 8.528125 10.076094 8.9980469 10.996094 8.9980469 C 12.428794 8.9980469 13.589844 7.8677562 13.589844 6.4726562 C 13.589844 5.0775563 12.428794 3.9453125 10.996094 3.9453125 z M 6 9.9960938 C -0.0002 9.9994938 1.1555965e-33 14 0 14 L 0 15 L 12 15 L 12 14 C 12 14 12 9.99 6 10 L 6 9.9960938 z M 11 9.9980469 L 11 10 C 10.8039 10 10.628286 10.012584 10.447266 10.021484 C 11.144826 10.421144 11.676381 10.898558 12.050781 11.398438 C 12.990781 12.658437 13 13.998047 13 13.998047 L 16 13.998047 L 16 12.998047 C 16 12.998047 16 9.9980469 11 9.9980469 z"/>
</svg>
